icons/rescript.svg

<svg width="16" height="16" viewBox="0 0 16 16" fill="none" xmlns="http://www.w3.org/2000/svg">
<path fill-rule="evenodd" clip-rule="evenodd" d="M4 2C2.89543 2 2 2.89543 2 4V12C2 13.1046 2.89543 14 4 14H12C13.1046 14 14 13.1046 14 12V4C14 2.89543 13.1046 2 12 2H4ZM5 6C5 5.44772 5.44772 5 6 5H8V10C8 10.5523 7.55228 11 7 11H6C5.44772 11 5 10.5523 5 10V6ZM12 6.5C12 7.32843 11.3284 8 10.5 8C9.67157 8 9 7.32843 9 6.5C9 5.67157 9.67157 5 10.5 5C11.3284 5 12 5.67157 12 6.5Z" fill="#D94851"/>
</svg>

<svg xmlns="http://www.w3.org/2000/svg" width="16" height="16" fill="none"><path fill="#D94851" fill-rule="evenodd" d="M4 2a2 2 0 0 0-2 2v8a2 2 0 0 0 2 2h8a2 2 0 0 0 2-2V4a2 2 0 0 0-2-2H4Zm1 4a1 1 0 0 1 1-1h2v5a1 1 0 0 1-1 1H6a1 1 0 0 1-1-1V6Zm7 .5a1.5 1.5 0 1 1-3 0 1.5 1.5 0 0 1 3 0Z" clip-rule="evenodd"/></svg>
